src/img/icon-plus.svg

<svg width="14" height="13" viewBox="0 0 14 13" fill="none" xmlns="http://www.w3.org/2000/svg">
<path d="M13.5 6.49999C13.5 6.91562 13.1656 7.24999 12.75 7.24999H7.75V12.25C7.75 12.6641 7.41406 13.0003 7 13.0003C6.58594 13.0003 6.25 12.6656 6.25 12.25V7.24999H1.25C0.835938 7.24999 0.5 6.91437 0.5 6.50031C0.5 6.08749 0.835938 5.74999 1.25 5.74999H6.25V0.749993C6.25 0.33593 6.58594 0.000305176 7 0.000305176C7.41406 0.000305176 7.75 0.33593 7.75 0.749993V5.74999H12.75C13.1656 5.74999 13.5 6.08749 13.5 6.49999Z" fill="#52606D"/>
</svg>

<svg xmlns="http://www.w3.org/2000/svg" fill="none" width="14" height="13" viewBox="0 0 14 13">
  <path d="M13.5 6.5c0 .416-.334.75-.75.75h-5v5a.75.75 0 0 1-1.5 0v-5h-5a.75.75 0 1 1 0-1.5h5v-5a.75.75 0 0 1 1.5 0v5h5a.75.75 0 0 1 .75.75z" fill="#52606D"/>
</svg>
